X:1
T:Title
%%score { 1 | ( 2 3 ) }
L:1/8
M:4/4
K:Ab
V:1 treble nm="Grand Piano"
V:2 bass 
V:3 bass 
V:1
 z4 z2[Q:1/4=84] [CE]2 | [CE][CE][CE][CF] [CA][CA][CA][DB] | [Ec][Ec][DB][CA] [Ec]3 [Ae] | %3
 [Ge]2 [GB]4 [Ge]2 | [Ae]2 [Ac]4 [CE]2 | [CE][CE][CE][CF] [CA][CA][CA][DB] | %6
 [Ec][Ec][DB][CA] [Ec]3 c | B2 [Ge]2- [Ge][Ge][Af][A=d] |[M:3/4] [Ge]6 |[M:1/4] [DE]2 | %10
[M:4/4] [CA]2 [Ec]4 [CA]2 | [Ec]2 [Ae]4 [Ae]2 | [Ge]BBc ddcB |[M:3/4] A2 c4 |[M:1/4] E2 | %15
[M:4/4] [CA]2 [Ec]4 [CA]2 | [Ec]2 [Ae]4 [Ae]2 | [Ge]BBc ddcB |[M:3/4] [CA]6 |] %19
V:2
 z4 z2 [A,,A,]2 | [A,,A,][A,,A,][A,,A,][A,,A,] [A,,E,][A,,E,][A,,E,][A,,F,] | %2
 [A,,A,][A,,A,][A,,E,][A,,E,] [A,,A,]3 [A,C] | [E,B,]2 [E,E]4 [E,B,]2 | [A,C]2 [A,E]4 [A,,A,]2 | %5
 [A,,A,][A,,A,][A,,A,][A,,A,] [A,,E,][A,,E,][A,,E,][A,,E,] | %6
 [A,,A,][A,,A,][A,,E,][A,,E,] [A,,A,]3 [A,E] | [G,B,E]2 [E,B,]2- [E,B,][E,B,][B,,B,][B,,B,] | %8
[M:3/4] [E,B,]6 |[M:1/4] [E,G,]2 |[M:4/4] [A,,A,]2 [A,,A,]4 [A,,E,]2 | [A,,A,]2 [A,C]4 [A,C]2 | %12
 [E,B,][E,G,E][E,G,E][E,A,E] [E,B,E][E,B,E][E,A,E][E,G,D] |[M:3/4] A,2- [A,E]4 |[M:1/4] [E,G,D]2 | %15
[M:4/4] [A,,A,]2 [A,,A,]4 [A,,E,]2 | [A,,A,]2 [A,C]4 [A,C]2 | %17
 [E,B,][E,G,E][E,G,E][E,A,E] [E,B,E][E,B,E][E,A,E][E,G,D] |[M:3/4] [A,,A,]6 |] %19
V:3
 x8 | x8 | x8 | x8 | x8 | x8 | x8 | x8 |[M:3/4] x6 |[M:1/4] x2 |[M:4/4] x8 | x8 | x8 | %13
[M:3/4] C2 z2 z2 |[M:1/4] x2 |[M:4/4] x8 | x8 | x8 |[M:3/4] x6 |] %19

